X: 16690
T: Happy Bloom Of Youth, The
R: reel
M: 4/4
K: Gmajor
|:(3Bcd|e3d B3A|GABG AE E2|G3 B dBeB|dBAc BG (3Bcd|
e3d B3A|GABG AE E2|G3B dBeB|dBAc BG G2:|
|:faag eggd|(3Bcd ef g3f|eB B2 gB B2|BAGA BA A2|
faag eggd|(3Bcd ef g3a|bgaf gfed|(3efg fa g2:|

